packages/axiom-materials/src/icon_svgs/retweet.svg

<svg height="16" viewBox="0 0 16 16" width="16" xmlns="http://www.w3.org/2000/svg"><path d="m13 7.5h2l-3 4-3-4h2v-2h-3.5l-1.5-2h5 2v2zm-8 3h3.5l1.5 2h-5-2v-2-2h-2l3-4 3 4h-2z" fill-rule="evenodd"/></svg>

<?xml version="1.0" encoding="UTF-8"?>
<svg width="16px" height="16px" viewBox="0 0 16 16" version="1.1" xmlns="http://www.w3.org/2000/svg" xmlns:xlink="http://www.w3.org/1999/xlink">
    <!-- Generator: sketchtool 43.2 (39069) - http://www.bohemiancoding.com/sketch -->
    <title>retweet</title>
    <desc>Created with sketchtool.</desc>
    <defs></defs>
    <g id="Page-1" stroke="none" stroke-width="1" fill="none" fill-rule="evenodd">
        <g id="retweet" fill="#000000">
            <path d="M13,7.5 L15,7.5 L12,11.5 L9,7.5 L11,7.5 L11,5.5 L7.5,5.5 L6,3.5 L11,3.5 L13,3.5 L13,5.5 L13,7.5 Z M5,10.5 L8.5,10.5 L10,12.5 L5,12.5 L3,12.5 L3,10.5 L3,8.5 L1,8.5 L4,4.5 L7,8.5 L5,8.5 L5,10.5 Z" id="Retweet"></path>
        </g>
    </g>
</svg>
